public/images/footer/youtube.svg

<svg width="37" height="37" viewBox="0 0 37 37" fill="none" xmlns="http://www.w3.org/2000/svg">
<rect x="1" y="1" width="35" height="35" rx="17.5" stroke="white"/>
<path fill-rule="evenodd" clip-rule="evenodd" d="M26.1485 13.8383C26.3967 14.0821 26.575 14.3853 26.6655 14.7174C27 15.9434 27 18.5 27 18.5C27 18.5 27 21.0566 26.6655 22.2826C26.575 22.6147 26.3967 22.9179 26.1485 23.1617C25.9002 23.4055 25.5907 23.5814 25.2509 23.6718C24 24 19 24 19 24C19 24 14 24 12.7491 23.6718C12.4093 23.5814 12.0998 23.4055 11.8515 23.1617C11.6033 22.9179 11.425 22.6147 11.3345 22.2826C11 21.0566 11 18.5 11 18.5C11 18.5 11 15.9434 11.3345 14.7174C11.425 14.3853 11.6033 14.0821 11.8515 13.8383C12.0998 13.5945 12.4093 13.4186 12.7491 13.3282C14 13 19 13 19 13C19 13 24 13 25.2509 13.3282C25.5907 13.4186 25.9002 13.5945 26.1485 13.8383ZM21.5455 18.5L17.3636 16.1785V20.8216L21.5455 18.5Z" fill="white"/>
</svg>

<svg xmlns="http://www.w3.org/2000/svg" width="37" height="37" fill="none"><rect width="35" height="35" x="1" y="1" stroke="#fff" rx="17.5"/><path fill="#fff" fill-rule="evenodd" d="M26.149 13.838c.248.244.426.547.517.88C27 15.942 27 18.5 27 18.5s0 2.557-.334 3.783c-.091.332-.27.635-.518.879s-.557.42-.897.51C24 24 19 24 19 24s-5 0-6.25-.328c-.34-.09-.65-.267-.899-.51a1.95 1.95 0 0 1-.517-.88C11 21.058 11 18.5 11 18.5s0-2.557.335-3.783c.09-.332.268-.635.516-.879.249-.243.558-.42.898-.51C14 13 19 13 19 13s5 0 6.25.328c.34.09.65.267.898.51M21.545 18.5l-4.182-2.322v4.644z" clip-rule="evenodd"/></svg>
